X:395
T: Get Up Old Woman
S: B.Breathnach: "Ceol Rince na hEireann" II/91 (gan ainm)
Z: B.Black
L: 1/8
M: 6/8
R: jig
K: Edor
e|d2B BAB|d2B g2e|d2B BAB|G2E E2e|
d2B BAB|def g2f|edB BAB|G2E E2 :|
D|G2B BBB|G2E EDD|F2A AAA|GED D3|
G2B BAA|def g2f|edB BAB|G2E E2 :|

